X: 32291
T: Pigeon On The Gate, The
R: reel
M: 4/4
K: Adorian
|:eAAG AgeA|A/A/A e/f/g edBA|G3B DGBA|G2 B/c/d gbag|
eAAG AgeA|A/A/A e/f/g edBA|G2 B/c/d gbaf|gedB A3g:|
e~a3 ^gaa=g|e~a3 bgag|e~d3 B/c/d ef|gefa gedg|
e~a3 ^gaa=g|e~a3 bgag|ed B/c/d gaba|gedB A3 g|
e~a3 ^gaa=g|e~a3 bgag|e~d3 B/c/d ef|gaba gedB|
~c3e ~a3g|e~a3 bgag|ed B/c/d gaba|gedB A3 g||

